X:1803
T:Gammellappen Cello i Gm
R:Vals
O:Västerbotten
Z:Anton Teljebäck
M:3/4
L:1/4
K:Gm
F,, | G,,3 | A,,3 | B,,3  | C,3 | D,3 | C,3 | B,,B,,A,,  | G,,2 F,,|
| G,,3 | A,,3 | B,,3  | C,3 | D,3 | E,3 | F,3 | G,3 ||
|: G,3 | ^F,3 | =F,3 | =E,3 | _E,3 | D,3 | D,D,D, | G,,3 :| 
(:musicend:)


(:music:)
